X:305
T: Dan Sweeney's
S: "Johnny O'Leary of Sliabh Luachra" (#48)
Z: B.Black
L: 1/8
M: 12/8
Q: 290
R: polka
K: A
A/B/A/F/ E>F|AB ce|fe cA/c/|BA FA|
A/B/A/F/ EF|AB ce|fe cB/c/|BA A2 :|
fe ce|fe ef/g/|af ec|BA FA/F/|
A/B/A/F/ EF|AB ce|fe cB/c/|BA A2 :|
